X: 37905
T: South Wind, The
R: waltz
M: 3/4
K: Gmajor
|:dc|B3 A G2|B3 c d2|A6|A2 dc|B3 A G2|E3 D E2|G6|G4:|
Bd|g4 gf|g2 f2 e2|d6|d4 c2|B3 A G2|B3 c d2|A6|A4 Bd|
g4 gf|g2 f2 e2|d6|d4 c2|B3 A G2|Ac- c2 F2|G6|G4||

